flaticon/medical/electric-toothbrush.svg

<svg xmlns="http://www.w3.org/2000/svg" width="32" height="32" viewBox="0 0 24 24">
    <path d="M 23.519531 19.027344 L 14.535156 10.046875 C 14.046875 9.558594 13.394531 9.289062 12.699219 9.289062 C 12.363281 9.289062 12.035156 9.351562 11.734375 9.472656 L 6.1875 4.339844 C 6.324219 3.984375 6.398438 3.601562 6.398438 3.199219 C 6.398438 1.4375 4.964844 0 3.199219 0 C 1.4375 0 0 1.4375 0 3.199219 C 0 4.964844 1.4375 6.398438 3.199219 6.398438 C 3.550781 6.398438 3.890625 6.339844 4.207031 6.234375 L 9.46875 11.738281 C 9.097656 12.671875 9.289062 13.78125 10.046875 14.539062 L 19.027344 23.519531 C 19.335938 23.828125 19.75 24 20.191406 24 C 20.632812 24 21.046875 23.828125 21.355469 23.519531 L 23.519531 21.355469 C 24.160156 20.714844 24.160156 19.671875 23.519531 19.027344 Z M 13.972656 10.613281 L 21.769531 18.40625 L 18.40625 21.769531 L 17.699219 21.058594 L 18.316406 20.4375 C 19.214844 19.542969 19.214844 18.082031 18.316406 17.183594 L 13.941406 12.8125 C 13.046875 11.914062 11.585938 11.914062 10.6875 12.8125 L 10.195312 13.304688 C 10.027344 12.832031 10.0625 12.308594 10.300781 11.863281 C 10.300781 11.859375 10.304688 11.855469 10.308594 11.851562 C 10.351562 11.769531 10.394531 11.699219 10.441406 11.632812 C 10.492188 11.5625 10.546875 11.492188 10.609375 11.425781 L 11.425781 10.613281 C 11.488281 10.550781 11.558594 10.496094 11.628906 10.445312 C 11.695312 10.398438 11.769531 10.351562 11.851562 10.308594 C 11.859375 10.304688 11.863281 10.300781 11.871094 10.296875 C 12.125 10.164062 12.402344 10.085938 12.699219 10.085938 C 13.179688 10.085938 13.632812 10.273438 13.972656 10.613281 Z M 12.648438 15.996094 C 13.167969 15.714844 13.867188 15.808594 14.300781 16.238281 C 14.5625 16.503906 14.707031 16.855469 14.707031 17.226562 C 14.707031 17.460938 14.648438 17.6875 14.539062 17.890625 Z M 14.863281 15.671875 C 14.449219 15.257812 13.898438 15.03125 13.3125 15.03125 C 12.859375 15.03125 12.425781 15.167969 12.0625 15.421875 L 10.636719 13.996094 L 11.253906 13.375 C 11.839844 12.792969 12.789062 12.789062 13.375 13.375 L 17.75 17.75 C 18.335938 18.335938 18.335938 19.289062 17.75 19.875 L 17.132812 20.492188 L 15.117188 18.476562 C 15.371094 18.113281 15.507812 17.679688 15.507812 17.226562 C 15.507812 16.640625 15.28125 16.089844 14.863281 15.671875 Z M 2.792969 5.5625 C 2.773438 5.359375 2.609375 5.199219 2.398438 5.199219 C 2.28125 5.199219 2.179688 5.253906 2.105469 5.332031 C 1.996094 5.277344 1.894531 5.214844 1.796875 5.140625 C 1.914062 5.074219 2 4.949219 2 4.800781 C 2 4.578125 1.820312 4.398438 1.601562 4.398438 C 1.453125 4.398438 1.328125 4.484375 1.257812 4.605469 C 1.1875 4.507812 1.121094 4.402344 1.066406 4.292969 C 1.148438 4.222656 1.199219 4.117188 1.199219 4 C 1.199219 3.792969 1.039062 3.628906 0.835938 3.609375 C 0.8125 3.476562 0.800781 3.339844 0.800781 3.199219 C 0.800781 3.0625 0.8125 2.925781 0.835938 2.792969 C 1.039062 2.773438 1.199219 2.609375 1.199219 2.398438 C 1.199219 2.28125 1.148438 2.179688 1.066406 2.105469 C 1.121094 1.996094 1.1875 1.894531 1.257812 1.796875 C 1.328125 1.914062 1.453125 2 1.601562 2 C 1.820312 2 2 1.820312 2 1.601562 C 2 1.453125 1.914062 1.328125 1.796875 1.257812 C 1.894531 1.1875 1.996094 1.121094 2.105469 1.066406 C 2.179688 1.148438 2.28125 1.199219 2.398438 1.199219 C 2.609375 1.199219 2.773438 1.039062 2.792969 0.835938 C 2.925781 0.816406 3.0625 0.800781 3.199219 0.800781 C 3.339844 0.800781 3.476562 0.816406 3.609375 0.835938 C 3.628906 1.039062 3.792969 1.199219 4 1.199219 C 4.117188 1.199219 4.222656 1.148438 4.292969 1.066406 C 4.402344 1.121094 4.507812 1.1875 4.605469 1.257812 C 4.484375 1.328125 4.398438 1.453125 4.398438 1.601562 C 4.398438 1.820312 4.578125 2 4.800781 2 C 4.949219 2 5.074219 1.914062 5.140625 1.796875 C 5.214844 1.894531 5.277344 1.996094 5.332031 2.105469 C 5.253906 2.179688 5.199219 2.28125 5.199219 2.398438 C 5.199219 2.609375 5.359375 2.773438 5.5625 2.792969 C 5.585938 2.925781 5.601562 3.0625 5.601562 3.199219 C 5.601562 3.339844 5.585938 3.476562 5.5625 3.609375 C 5.359375 3.628906 5.199219 3.792969 5.199219 4 C 5.199219 4.117188 5.25 4.21875 5.332031 4.292969 C 5.273438 4.402344 5.210938 4.507812 5.140625 4.605469 C 5.070312 4.484375 4.949219 4.398438 4.800781 4.398438 C 4.578125 4.398438 4.398438 4.578125 4.398438 4.800781 C 4.398438 4.945312 4.484375 5.070312 4.601562 5.140625 C 4.574219 5.160156 4.550781 5.179688 4.527344 5.199219 C 4.523438 5.199219 4.519531 5.203125 4.515625 5.203125 C 4.445312 5.25 4.367188 5.289062 4.289062 5.328125 C 4.214844 5.25 4.113281 5.199219 4 5.199219 C 3.792969 5.199219 3.625 5.359375 3.605469 5.5625 C 3.476562 5.585938 3.339844 5.601562 3.199219 5.601562 C 3.0625 5.601562 2.925781 5.585938 2.792969 5.5625 Z M 4.964844 5.867188 C 4.964844 5.867188 4.96875 5.867188 4.96875 5.863281 C 5.121094 5.761719 5.261719 5.648438 5.394531 5.523438 C 5.402344 5.515625 5.414062 5.503906 5.425781 5.496094 C 5.554688 5.371094 5.671875 5.234375 5.777344 5.085938 C 5.785156 5.082031 5.789062 5.074219 5.796875 5.066406 L 11.019531 9.902344 C 10.988281 9.929688 10.957031 9.960938 10.925781 9.988281 C 10.902344 10.007812 10.878906 10.027344 10.859375 10.046875 L 10.046875 10.859375 C 10.027344 10.878906 10.011719 10.898438 9.996094 10.917969 C 9.960938 10.953125 9.925781 10.988281 9.894531 11.027344 Z M 22.953125 20.792969 L 20.792969 22.953125 C 20.472656 23.273438 19.910156 23.273438 19.59375 22.953125 L 18.972656 22.335938 L 22.332031 18.972656 L 22.953125 19.59375 C 23.285156 19.925781 23.285156 20.460938 22.953125 20.792969 Z M 22.953125 20.792969"/>
    <path d="M3.601562 1.601562C3.601562 1.820312 3.421875 2 3.199219 2 2.980469 2 2.800781 1.820312 2.800781 1.601562 2.800781 1.378906 2.980469 1.199219 3.199219 1.199219 3.421875 1.199219 3.601562 1.378906 3.601562 1.601562zM2.800781 2.398438C2.800781 2.621094 2.621094 2.800781 2.398438 2.800781 2.179688 2.800781 2 2.621094 2 2.398438 2 2.179688 2.179688 2 2.398438 2 2.621094 2 2.800781 2.179688 2.800781 2.398438zM4.398438 2.398438C4.398438 2.621094 4.222656 2.800781 4 2.800781 3.777344 2.800781 3.601562 2.621094 3.601562 2.398438 3.601562 2.179688 3.777344 2 4 2 4.222656 2 4.398438 2.179688 4.398438 2.398438zM5.199219 3.199219C5.199219 3.421875 5.019531 3.601562 4.800781 3.601562 4.578125 3.601562 4.398438 3.421875 4.398438 3.199219 4.398438 2.980469 4.578125 2.800781 4.800781 2.800781 5.019531 2.800781 5.199219 2.980469 5.199219 3.199219zM3.601562 4.800781C3.601562 5.019531 3.421875 5.199219 3.199219 5.199219 2.980469 5.199219 2.800781 5.019531 2.800781 4.800781 2.800781 4.578125 2.980469 4.398438 3.199219 4.398438 3.421875 4.398438 3.601562 4.578125 3.601562 4.800781zM3.601562 3.199219C3.601562 3.421875 3.421875 3.601562 3.199219 3.601562 2.980469 3.601562 2.800781 3.421875 2.800781 3.199219 2.800781 2.980469 2.980469 2.800781 3.199219 2.800781 3.421875 2.800781 3.601562 2.980469 3.601562 3.199219zM2 3.199219C2 3.421875 1.820312 3.601562 1.601562 3.601562 1.378906 3.601562 1.199219 3.421875 1.199219 3.199219 1.199219 2.980469 1.378906 2.800781 1.601562 2.800781 1.820312 2.800781 2 2.980469 2 3.199219zM2.800781 4C2.800781 4.222656 2.621094 4.398438 2.398438 4.398438 2.179688 4.398438 2 4.222656 2 4 2 3.78125 2.179688 3.601562 2.398438 3.601562 2.621094 3.601562 2.800781 3.78125 2.800781 4zM4.398438 4C4.398438 4.222656 4.222656 4.398438 4 4.398438 3.777344 4.398438 3.601562 4.222656 3.601562 4 3.601562 3.78125 3.777344 3.601562 4 3.601562 4.222656 3.601562 4.398438 3.78125 4.398438 4zM4.398438 4"/>
</svg>

<svg xmlns="http://www.w3.org/2000/svg" width="32" height="32" viewBox="0 0 24 24">
    <path d="M23.52 19.027l-8.985-8.98a2.579 2.579 0 0 0-1.836-.758c-.336 0-.664.063-.965.184L6.188 4.34A3.203 3.203 0 0 0 3.2 0 3.206 3.206 0 0 0 0 3.2c0 1.765 1.438 3.198 3.2 3.198.35 0 .69-.058 1.007-.164l5.262 5.504a2.603 2.603 0 0 0 .578 2.801l8.98 8.98c.309.31.723.481 1.164.481.442 0 .856-.172 1.164-.48l2.165-2.165a1.65 1.65 0 0 0 0-2.328zm-9.547-8.414l7.797 7.793-3.364 3.364-.707-.711.617-.622a2.301 2.301 0 0 0 0-3.253l-4.375-4.372a2.301 2.301 0 0 0-3.254 0l-.492.493a1.786 1.786 0 0 1 .106-1.442c0-.004.004-.008.008-.011a1.907 1.907 0 0 1 .3-.426l.817-.813a1.978 1.978 0 0 1 .426-.305l.02-.011a1.773 1.773 0 0 1 2.1.316zm-1.325 5.383a1.433 1.433 0 0 1 1.653.242 1.402 1.402 0 0 1 .238 1.653zm2.215-.324a2.177 2.177 0 0 0-1.55-.64c-.454 0-.887.136-1.25.39l-1.426-1.426.617-.621a1.503 1.503 0 0 1 2.121 0l4.375 4.375c.586.586.586 1.54 0 2.125l-.617.617-2.016-2.015c.254-.364.39-.797.39-1.25a2.18 2.18 0 0 0-.644-1.555zM2.793 5.562a.396.396 0 0 0-.395-.363.405.405 0 0 0-.293.133 1.934 1.934 0 0 1-.308-.191A.393.393 0 0 0 2 4.8a.401.401 0 0 0-.398-.403.4.4 0 0 0-.344.207 2.306 2.306 0 0 1-.192-.312A.384.384 0 0 0 1.2 4a.395.395 0 0 0-.363-.39 2.356 2.356 0 0 1 0-.817.396.396 0 0 0 .363-.395.39.39 0 0 0-.133-.293c.055-.109.121-.21.192-.308.07.117.195.203.344.203A.4.4 0 0 0 2 1.602a.404.404 0 0 0-.203-.344c.098-.07.2-.137.308-.192a.39.39 0 0 0 .293.133c.211 0 .375-.16.395-.363.133-.02.27-.035.406-.035.14 0 .278.015.41.035.02.203.184.363.391.363.117 0 .223-.05.293-.133.11.055.215.121.312.192a.4.4 0 0 0-.207.344c0 .218.18.398.403.398a.393.393 0 0 0 .34-.203c.074.098.136.2.191.308a.405.405 0 0 0-.133.293c0 .211.16.375.364.395.023.133.039.27.039.406 0 .14-.016.278-.04.41a.39.39 0 1 0-.23.684 2.78 2.78 0 0 1-.191.312.393.393 0 0 0-.34-.207.402.402 0 0 0-.403.403c0 .144.086.27.204.34-.028.02-.051.039-.075.058-.004 0-.007.004-.011.004-.07.047-.149.086-.227.125A.399.399 0 0 0 4 5.2a.399.399 0 0 0-.395.364c-.128.023-.265.039-.406.039-.136 0-.273-.016-.406-.04zm2.172.305s.004 0 .004-.004c.152-.101.293-.215.426-.34.007-.007.02-.02.03-.027a2.95 2.95 0 0 0 .352-.41c.008-.004.012-.012.02-.02l5.223 4.836c-.032.028-.063.059-.094.086-.024.02-.047.04-.067.059l-.812.812c-.02.02-.035.04-.05.059-.036.035-.071.07-.102.11zm17.988 14.926l-2.16 2.16a.868.868 0 0 1-1.2 0l-.62-.617 3.359-3.363.621.62a.846.846 0 0 1 0 1.2zm0 0"/>
    <path d="M3.602 1.602a.401.401 0 1 1-.802-.005.401.401 0 0 1 .802.005zm0 0M2.8 2.398a.401.401 0 1 1 0 0zm0 0M4.398 2.398a.398.398 0 1 1-.796 0 .398.398 0 1 1 .796 0zm0 0M5.2 3.2a.401.401 0 1 1-.803.002.401.401 0 0 1 .802-.003zm0 0M3.602 4.8a.401.401 0 1 1-.802-.004.401.401 0 0 1 .802.005zm0 0M3.602 3.2a.401.401 0 1 1 0 0zm0 0M2 3.2a.401.401 0 1 1-.802.002A.401.401 0 0 1 2 3.199zm0 0M2.8 4c0 .223-.179.398-.402.398a.398.398 0 1 1 0-.796c.223 0 .403.18.403.398zm0 0M4.398 4A.395.395 0 0 1 4 4.398.395.395 0 0 1 3.602 4a.398.398 0 1 1 .796 0zm0 0"/>
</svg>
